assets/icons/qvision/airline_seat_flat_angled.svg

<svg width="24" height="24" viewBox="0 0 24 24" fill="none" xmlns="http://www.w3.org/2000/svg">
<g clip-path="url(#clip0_147_5889)">
<path d="M22.25 14.29L21.56 16.18L9.2 11.71L11.28 6.04999L19.84 9.13999C21.94 9.89999 23.02 12.2 22.25 14.29ZM1.5 12.14L8 14.48V19H16V17.37L20.52 19L21.21 17.11L2.19 10.25L1.5 12.14ZM7.3 10.2C8.79 9.47999 9.42 7.68999 8.71 6.19999C7.99 4.70999 6.2 4.07999 4.7 4.79999C3.21 5.50999 2.58 7.29999 3.3 8.79999C4.01 10.29 5.8 10.92 7.3 10.2Z" fill="#323232"/>
</g>
<defs>
<clipPath id="clip0_147_5889">
<rect width="24" height="24" fill="white"/>
</clipPath>
</defs>
</svg>

<svg xmlns="http://www.w3.org/2000/svg" height="24" viewBox="0 0 24 24" width="24"><path d="M0 0h24v24H0z" fill="none"/><path d="M22.25 14.29l-.69 1.89L9.2 11.71l2.08-5.66 8.56 3.09c2.1.76 3.18 3.06 2.41 5.15zM1.5 12.14L8 14.48V19h8v-1.63L20.52 19l.69-1.89-19.02-6.86-.69 1.89zm5.8-1.94c1.49-.72 2.12-2.51 1.41-4C7.99 4.71 6.2 4.08 4.7 4.8c-1.49.71-2.12 2.5-1.4 4 .71 1.49 2.5 2.12 4 1.4z"/></svg>
